X: 7604
T: Coffee
R: jig
M: 6/8
K: Adorian
|:"Am"EAA GAA|cBA eAA|EAA GAA|"Em"cBA ABA|
"Am"EAA GAA|cBA eAA|"F"cBA "Em"ABA|GED "Am"A3:|
|:"Am"[E2A,2][AC] EGA|"(F)" cBA GED|"Am (D)"[E2A,2][AC] EGA|"(F)"cBA A3|
"Am"[E2A,2][AC] EGA|"G"d2 c- "Am"cAG|"G"d2 c- "Am"cAG|"Em"EDE "Am"A3:|

